X: 512
T: Cemalin Ateş-i
C: Zaharya
O: Turkey
F: http://compmusic.upf.edu/node/140
N: huseyni--beste--agircenber--cemalin_ates-i--zaharya
N: makam= huseyni
N: form= beste
N: usul= agircenber = 24/2
M: 24/2
L: 1/16
K: C _2/4B ^3/4f  
Q: 1/4=48
%%MIDI tuningsystem comma53
g6^f2 e6d2 e4 d4 c4 d4  | e6d2 a4 g2^f2 f2g2 f2e2 e8  | \
w:   |   | 
e2z2 e2g2 e6d2 d6c2 d8  | 
w:   | 
d2z2 d2e2 d6c2 c6_1/4B2 d4 c2d2  | \
w:   | 
e6=f2 e2f2 e2d2 c4 d2c2 d4 e2d2  | 
w:   | 
c4 d2c2 d4 e2d2 e4 ^f2e2 f4 g2f2  | \
w:   | 
z2^f4g2 f2e4d2 d6z2 g4 f2g2  | 
w:   | 
e6^f2 g4 a2=b2 a2g2 f2e2 e8  | e2z2 c2d2 e6g2 e6d2 d2c2 d2_1/4B2  | 
w:   |   | 
c4 d2c2 d4 e2d2 e2g2 =f2e2 d2c2 e2d2  | \
w:   | 
d6z2 c2d2 c2d2 d2e2 d2c2 c2d2 c2_1/4B2  | 
w:   | 
c8 d4 e4 e8 d4 e4  | =f2e2 f2g2 e6d2 e2^f2 e2d2 c6d2  | \
w:   |   | 
d2c2 _1/4B2c2 B2c2 d2e2 d2c2 B2A2 A6G2  | 
w:   | 
A2G4^F2 F8 d4 c2_1/4B2 c6z2  | d6e2 =f2e4f2 e4 c2c2 d4 e4  | \
w:   |   | 
d2c2 _1/4B2c2 B2c2 d2c2 c12 z4  | 
w:   | 
d6e2 e8 e2g2 ^f2e2 d2^c2 d2e2  | d2g2 ^f2e2 e6z2 =f6e2 f2e2 f2g2  | 
w:   |   | 
=f3e d2e2 d4 e4 d3c _1/4B2c2 B4 c4  | \
w:   | 
z4 d8 e4 e8 e4 ^f4  | d8 d2z2 e2^f2 g2a2 g2f2 e2d2 c'2_1/4b2  | 
w:   |   | 
a8 a2g2 =f2e2 e2d4c2 _1/4B2c2 d2e2  | \
w:   | 
d2c2 _1/4B2A2 A12 z4 z4 z4  | z4 _1/4B4 c4 c2_7/8d2 c2B2 A4 A8  | 
w:   |   | 
_1/4B4 c2B2 A2B2 c2e2 _7/8d2c2 c2B2 A2B2 c8 c2z2 c2d2 c4 B4 =d2c2 B2A2 B8 B2z2 c2d2 c4 B4 A6G2 A6B2 c2B2 c2_7/8d2 c2d2 c2B2 A8 =d8 d4 e2d2 ^c4 d2c2 _7/8B4 =c2B2 A4  | 
w:   | 
_7/8B2A2 B3A ^G2A2 G2A2 G2A2 =G2^1/4F6 ^G6A2 B4 A2B2 ^c2d2 c2B2 B6A2 A8 z4 d8 e4 e8 e4  | 
w:   | 
g2^f2 f8 f2z2 e2f2 g2a2 g2f2 f2g2  | \
w:   | 
^f2e2 e2=f2 e2d2 e3d ^c2d2 e2^f2 d2e2 f2g2  | 
w:   | 
^f2^e2 f8 d4 f4 f8 d4  | ^f4 f2^e2 f2g2 f2=e2 d2e2 e8 d6d2 ^c2d2 c2d2 c2d2 e2f2 gfe2 dc=B2 B6A2 _7/8B2A2 G2^F2 G8 d4 =c2_1/4B2 c6z2 d6^c2 d2c2 d2e2 d2c2 =B2A2 B4  | 
w:   |   | 
^f4 e2d2 ^c2d2 c2d2 e2d2 d12  | z4 d6e2 e8 e2g2 ^f2e2 d2^c2  | \
w:   |   | 
d2e2 d2g2 ^f2e2 d2^c2 d4 d2z2 d8  | 
w:   | 
g4 g4 ^f4 e2d2 ^c2_7/8B2 d6c4B3AG4G2 z2G8A4A8A4d2 c2d8d2 z2c2 d2e2 g2=f2 e2e2  | 
w:   | 
d2d2 ^c2c2 _7/8B2B2 A2A2 B2A2 G2A2 B2A2 G2d2  | \
w:   | 
^c2_7/8B2 A2A4G4G6 ^F2F12z4g6 ^f2e6 d2e4d4=c4d4e6 d2a4g2 f2f2 g2f2 e2e8e2 z2e2 g2e6 d2d6 c2d8d2 z2d2 e2d6 c2c6 _1/4B2d4c2 d2e6 =f2e2 f2e2 d2c4d2 c2d4e2 d2c4d2 c2d4e2 d2e4^f2 e2f4g2 f2z2 f4 g2f2 e4 d2d6 z2g4f2 g2e6 f2g4a2 =b2a2 g2f2 e2e8e2 z2c2 d2e6 g2e6 d2d2  | 
w:   | 
c2d2 _1/4B2c4d2 c2d4e2 d2e2 g2=f2 e2d2  | \
w:   | 
c2e2 d2d6 z2c2 d2c2 d2d2 e2d2 c2c2  | 
w:   | 
d2c2 _1/4B2c8d4e4e8d4e4=f2 e2f2 g2e6 d2e2 ^f2e2 d2c6 d2d2 c2B2 c2B2 c2d2 e2d2 c2B2 A2A6 G2A2 G4 ^F2F8d4c2 B2c6 z2d6 e2=f2 e4 f2e4c2 c2d4e4d2 c2B2 c2B2 c2d2 c2c12z4d6 e2e8e2 g2^f2 e2d2  | 
w:   | 
^c2d2 e2d2 g2^f2 e2e6 z2=f6 e2f2  | \
w:   | 
e2=f2 g2f3ed2 e2d4e4d3c_1/4B2 c2B4c4z4d8e4e8e4^f4d8d2 z2e2 f2g2 a2g2 f2e2  | 
w:   | 
d2c'2 _1/4b2a8a2 g2=f2 e2e2 d4 c2_1/4B2  | \
w:   | 
c2d2 e2d2 c2_1/4B2 A2A12z4z4z4z4|
w:   | 


